packages/trader/src/Assets/SvgComponents/trade_explanations/img-turbos.svg

<svg width="272" height="147" viewBox="0 0 272 147" fill="none" xmlns="http://www.w3.org/2000/svg">
  <g fill="none" fill-rule="evenodd">
<path d="M268 0H4C1.79086 0 0 1.77876 0 3.97297V143.027C0 145.221 1.79086 147 4 147H268C270.209 147 272 145.221 272 143.027V3.97297C272 1.77876 270.209 0 268 0Z" fill="white"/>
<path d="M268 0H4C1.79086 0 0 1.77876 0 3.97297V143.027C0 145.221 1.79086 147 4 147H268C270.209 147 272 145.221 272 143.027V3.97297C272 1.77876 270.209 0 268 0Z" fill="#F2F3F4"/>
<path d="M157.12 89.6009H189.89C193.11 89.6009 195.72 92.0046 195.72 94.9645C195.72 97.9343 193.11 100.328 189.89 100.328H40.6C37.39 100.328 34.78 97.9343 34.78 94.9645C34.78 92.0046 37.38 89.6009 40.61 89.6009H104.69C107.91 89.6009 110.52 87.1973 110.52 84.2374C110.52 81.2776 107.92 78.8739 104.69 78.8739H55.16V78.8243C52.25 78.4866 50.06 76.2021 50.06 73.5005C50.06 70.7989 52.25 68.5144 55.16 68.1767V68.137H75.56C78.77 68.137 81.38 65.7333 81.38 62.7734C81.38 59.8036 78.78 57.4 75.55 57.4H48.61C45.39 57.4 42.78 54.9963 42.78 52.0365C42.78 49.0667 45.38 46.673 48.61 46.673H186.98C190.2 46.673 192.81 49.0667 192.81 52.0365C192.81 54.9963 190.2 57.4 186.98 57.4H133.08C129.87 57.4 127.26 59.8036 127.26 62.7635C127.26 65.7234 129.87 68.127 133.09 68.127H165.13C168.35 68.127 170.96 70.5406 170.96 73.5005C170.96 76.4603 168.35 78.864 165.13 78.864H147.65C144.44 78.864 141.83 81.2676 141.83 84.2275C141.83 87.1973 144.43 89.6009 147.65 89.6009H157.12V89.6009ZM31.12 46.663C34.35 46.663 36.96 49.0667 36.96 52.0266C36.96 55.0063 34.35 57.4 31.13 57.4C27.91 57.4 25.3 54.9963 25.3 52.0365C25.3 49.0667 27.91 46.673 31.13 46.673L31.12 46.663ZM168.04 25.209H208.83C212.04 25.209 214.65 27.6027 214.65 30.5725C214.65 33.5423 212.05 35.936 208.83 35.936H168.04C164.83 35.936 162.22 33.5324 162.22 30.5725C162.22 27.6027 164.82 25.209 168.04 25.209ZM143.28 25.209C146.5 25.209 149.11 27.6027 149.11 30.5725C149.11 33.5423 146.5 35.936 143.28 35.936C140.06 35.936 137.46 33.5324 137.46 30.5725C137.46 27.6027 140.06 25.209 143.28 25.209ZM213.92 46.663H224.12C227.34 46.663 229.95 49.0667 229.95 52.0266C229.95 55.0063 227.34 57.4 224.12 57.4H213.92C210.71 57.4 208.1 54.9963 208.1 52.0365C208.1 49.0667 210.7 46.673 213.92 46.673V46.663ZM188.43 68.137H210.28C213.5 68.137 216.11 70.5406 216.11 73.5005C216.11 76.4603 213.51 78.864 210.28 78.864H188.44C185.22 78.864 182.61 76.4603 182.61 73.5005C182.61 70.5406 185.21 68.137 188.44 68.137H188.43ZM208.83 89.6009H240.87C244.09 89.6009 246.7 92.0046 246.7 94.9645C246.7 97.9343 244.09 100.328 240.87 100.328H208.83C205.61 100.328 203 97.9343 203 94.9645C203 92.0046 205.61 89.6009 208.83 89.6009ZM69.73 111.065H135.27C138.49 111.065 141.1 113.469 141.1 116.428C141.1 119.398 138.49 121.792 135.27 121.792H69.73C66.51 121.792 63.9 119.398 63.9 116.428C63.9 113.459 66.5 111.065 69.73 111.065V111.065ZM157.12 111.065H167.32C170.53 111.065 173.14 113.469 173.14 116.428C173.14 119.398 170.54 121.792 167.32 121.792H157.12C153.9 121.792 151.29 119.398 151.29 116.428C151.29 113.459 153.9 111.065 157.12 111.065Z" fill="white"/>
<path d="M208 85.25H201C200.448 85.25 200 84.8023 200 84.25V75.5533L172 101.803L156 86.8033L144 98.0534V87.4468L156 76.1967L172 91.1967L194.343 70.25H185C184.448 70.25 184 69.8023 184 69.25V62.75H208V85.25Z" fill="#FF444F"/>
<path d="M144 45.875H152V53.375H144V45.875Z" fill="#85ACB0"/>
<path d="M160 45.875H168V53.375H160V45.875Z" fill="#85ACB0"/>
<path d="M176 45.875H184V53.375H176V45.875Z" fill="#85ACB0"/>
<path d="M192 44H208V55.25H192L188 49.625L192 44Z" fill="#85ACB0"/>
<path d="M64 94.2832H72V101.733H64V94.2832Z" fill="#85ACB0"/>
<path d="M80 94.2832H88V101.733H80V94.2832Z" fill="#85ACB0"/>
<path d="M96 94.2832H104V101.733H96V94.2832Z" fill="#85ACB0"/>
<path d="M112 92.4209H128V103.595H112L108 98.0079L112 92.4209Z" fill="#85ACB0"/>
<path d="M128 62.6237H121C120.448 62.6237 120 63.0714 120 63.6237V72.2549L92 46.1823L76 61.0809L63.9999 49.9069V60.4418L76 71.6158L92 56.7172L114.343 77.5224H105C104.448 77.5224 104 77.9701 104 78.5224V84.9717H128V62.6237Z" fill="#FF444F"/>
</g>
</svg>

<svg width="272" height="147" viewBox="0 0 272 147" fill="none" xmlns="http://www.w3.org/2000/svg"><path d="M268 0H4C1.79 0 0 1.779 0 3.973v139.054C0 145.221 1.79 147 4 147h264c2.209 0 4-1.779 4-3.973V3.973C272 1.779 270.209 0 268 0Z" fill="var(--general-section-1)"/><path d="M157.12 89.6h32.77c3.22 0 5.83 2.405 5.83 5.365 0 2.97-2.61 5.363-5.83 5.363H40.6c-3.21 0-5.82-2.394-5.82-5.364 0-2.96 2.6-5.363 5.83-5.363h64.08c3.22 0 5.83-2.404 5.83-5.364s-2.6-5.363-5.83-5.363H55.16v-.05c-2.91-.337-5.1-2.622-5.1-5.323 0-2.702 2.19-4.987 5.1-5.324v-.04h20.4c3.21 0 5.82-2.404 5.82-5.364 0-2.97-2.6-5.373-5.83-5.373H48.61c-3.22 0-5.83-2.404-5.83-5.364 0-2.97 2.6-5.363 5.83-5.363h138.37c3.22 0 5.83 2.394 5.83 5.363 0 2.96-2.61 5.364-5.83 5.364h-53.9c-3.21 0-5.82 2.404-5.82 5.364s2.61 5.363 5.83 5.363h32.04c3.22 0 5.83 2.414 5.83 5.374 0 2.96-2.61 5.363-5.83 5.363h-17.48c-3.21 0-5.82 2.404-5.82 5.364 0 2.97 2.6 5.373 5.82 5.373h9.47Zm-126-42.937c3.23 0 5.84 2.404 5.84 5.364 0 2.98-2.61 5.373-5.83 5.373s-5.83-2.404-5.83-5.364c0-2.97 2.61-5.363 5.83-5.363l-.01-.01Zm136.92-21.454h40.79c3.21 0 5.82 2.394 5.82 5.364 0 2.97-2.6 5.363-5.82 5.363h-40.79c-3.21 0-5.82-2.404-5.82-5.363 0-2.97 2.6-5.364 5.82-5.364Zm-24.76 0c3.22 0 5.83 2.394 5.83 5.364 0 2.97-2.61 5.363-5.83 5.363s-5.82-2.404-5.82-5.363c0-2.97 2.6-5.364 5.82-5.364Zm70.64 21.454h10.2c3.22 0 5.83 2.404 5.83 5.364 0 2.98-2.61 5.373-5.83 5.373h-10.2c-3.21 0-5.82-2.404-5.82-5.364 0-2.97 2.6-5.363 5.82-5.363v-.01Zm-25.49 21.474h21.85c3.22 0 5.83 2.404 5.83 5.364s-2.6 5.363-5.83 5.363h-21.84c-3.22 0-5.83-2.404-5.83-5.364s2.6-5.363 5.83-5.363h-.01Zm20.4 21.464h32.04c3.22 0 5.83 2.404 5.83 5.364 0 2.97-2.61 5.363-5.83 5.363h-32.04c-3.22 0-5.83-2.394-5.83-5.364 0-2.96 2.61-5.363 5.83-5.363Zm-139.1 21.464h65.54c3.22 0 5.83 2.404 5.83 5.363 0 2.97-2.61 5.364-5.83 5.364H69.73c-3.22 0-5.83-2.394-5.83-5.364 0-2.969 2.6-5.363 5.83-5.363Zm87.39 0h10.2c3.21 0 5.82 2.404 5.82 5.363 0 2.97-2.6 5.364-5.82 5.364h-10.2c-3.22 0-5.83-2.394-5.83-5.364 0-2.969 2.61-5.363 5.83-5.363Z" fill="var(--fill-normal)"/><path d="M208 85.25h-7a1 1 0 0 1-1-1v-8.697l-28 26.25-16-15-12 11.25V87.447l12-11.25 16 15 22.343-20.947H185a1 1 0 0 1-1-1v-6.5h24v22.5Z" fill="#FF444F"/><path d="M144 45.875h8v7.5h-8v-7.5Zm16 0h8v7.5h-8v-7.5Zm16 0h8v7.5h-8v-7.5ZM192 44h16v11.25h-16l-4-5.625L192 44ZM64 94.283h8v7.45h-8v-7.45Zm16 0h8v7.45h-8v-7.45Zm16 0h8v7.45h-8v-7.45Zm16-1.863h16v11.175h-16l-4-5.587 4-5.587Z" fill="#85ACB0"/><path d="M128 62.624h-7a1 1 0 0 0-1 1v8.63L92 46.183 76 61.081 64 49.907v10.535l12 11.174 16-14.899 22.343 20.805H105a1 1 0 0 0-1 1v6.45h24V62.624Z" fill="#FF444F"/></svg>
